src/img/projects/searchbox.svg

<?xml version="1.0" encoding="UTF-8"?>
<svg width="90px" height="90px" viewBox="0 0 90 90" version="1.1" xmlns="http://www.w3.org/2000/svg" xmlns:xlink="http://www.w3.org/1999/xlink">
    <!-- Generator: Sketch 41.2 (35397) - http://www.bohemiancoding.com/sketch -->
    <title>community/card/logo/searchbox</title>
    <desc>Created with Sketch.</desc>
    <defs></defs>
    <g id="Symbols" stroke="none" stroke-width="1" fill="none" fill-rule="evenodd">
        <g id="community/card/logo/searchbox" fill="#FFFFFF">
            <path d="M51.3340426,54.5915063 C47.9460067,57.2284145 43.7066364,58.795678 39.1064413,58.795678 C28.0019604,58.795678 19,49.6632544 19,38.397839 C19,27.1324236 28.0019604,18 39.1064413,18 C50.2109222,18 59.2128826,27.1324236 59.2128826,38.397839 C59.2128826,43.7858347 57.1536891,48.6859096 53.7901405,52.3322859 L55.4931621,54.0353075 L55.8863231,53.6421466 C56.6704591,52.8580106 57.9401548,52.8563708 58.7168832,53.6330992 L69.8097333,64.7259493 C70.5888725,65.5050885 70.5838643,66.7733311 69.8006859,67.5565094 L66.5845457,70.7726496 C65.8004098,71.5567856 64.530714,71.5584254 63.7539856,70.781697 L52.6611355,59.6888469 C51.8819963,58.9097077 51.8870046,57.6414651 52.6701829,56.8582868 L53.135503,56.3929667 L51.3340426,54.5915063 Z M39.1064413,55.3960382 C48.3601754,55.3960382 55.8618091,47.7856852 55.8618091,38.397839 C55.8618091,29.0099928 48.3601754,21.3996398 39.1064413,21.3996398 C29.8527072,21.3996398 22.3510736,29.0099928 22.3510736,38.397839 C22.3510736,47.7856852 29.8527072,55.3960382 39.1064413,55.3960382 Z" id="sbx-icon-search-5"></path>
        </g>
    </g>
</svg>

<svg width="90" height="90" viewBox="0 0 90 90" xmlns="http://www.w3.org/2000/svg"><title>community/card/logo/searchbox</title><path d="M51.334 54.592a19.835 19.835 0 0 1-12.228 4.204C28.002 58.796 19 49.663 19 38.398 19 27.132 28.002 18 39.106 18c11.105 0 20.107 9.132 20.107 20.398 0 5.388-2.06 10.288-5.423 13.934l1.703 1.703.393-.393a2.004 2.004 0 0 1 2.83-.009L69.81 64.726c.779.78.774 2.047-.01 2.83l-3.215 3.217a2.004 2.004 0 0 1-2.831.009L52.661 59.689a2.002 2.002 0 0 1 .01-2.83l.465-.466-1.802-1.801zm-12.228.804c9.254 0 16.756-7.61 16.756-16.998 0-9.388-7.502-16.998-16.756-16.998-9.253 0-16.755 7.61-16.755 16.998 0 9.388 7.502 16.998 16.755 16.998z" fill="#FFF" fill-rule="evenodd"/></svg>
